-- pad

do
  let 
    pat = "0 1/4 1 0/2 0 1/3 0 1/4 1/3"
  d1 
    $ slow 3
    $ msvoA 0.125
    $ stack [
      ((rev) $ gain pat |+| sound "ecco_noise:5")
      ,((rev) $ gain (inverse <$> pat) |+| sound "ecco_bip:8")
      ,(slow 4 (gain (inverse <$> pat) |+| sound "ecco_pad:8") |*| gain "0.6")
    ]
    -- |+| mGain
    |+| mDefault
    |+| slowSpeedR 3
    |*| gain "0.7"
    |+| n "9"

hush

