cps (80/120)

do
  x <- lazy' 2 defaultI
  d1
    $ msvoA 0.125
    $ x
    |+| mNudge
    |+| slowPanR 3
    |=| mGain
    |+| n "{43 6 34 ~ 0 2}"
    |+| slowSpeedR 3
    -- |+| brick "{2 0 0 0 0.5 0 2 0 0}%6"
    -- |+| slowWahR 3
    |+| mfDel "{0 0.1 0 0 0 0  0.12}%3"


hush
