setcps 0.5


do
  x <- lazy'' "ftf t(2,10)" $ inst2
  d1
    $ sometimes (within (0.1,0.6) (rot 1))
    $ within (0.3, 0.75) (|+ ring "{4 0.6 0.5 1}%18")
    $ within (0.2, 0.8) ((|+ conv 0.45) . (|+ up (scale "dorian" "[0,2,4]" + "<0 0 1 1>" + 3)))
    $ x
    |+ mGain
    |+ slowPanR 4
    |+ rotAccelerate 2
    |+ rotPipe 2
    |+ n "10 43 10 45"
    |+ room 0.1
    

hush
