setcps 0.5

do
  x <- lazy'' "ttf t(4,5)" $ inst2
  d1
    $ whenmod 4 3 (rot "<1 2>")
    $ sometimes (within (0.4, 0.6) (striate' 16 (1/16)))
    $ x
    |+ rotAccelerate 2
    |+ slowSpeedR 3
    |+ shape 0.2
    -- |+ slowSpeedR 3
    |+ rotPipe 2
    |+ slowPanS 4
    |+ room 0.1
    |< mGain
    |+ n "<24 7> ~ 27"



hush

