setcps (125/240)

do
  x <- lazy' "<2 5 2 4>" inst0
  let uni = "~ mwb:20? mb:5?, ~ ml3:18?" |+ sus 0.5 |+ mGain
  d1 
    $ sometimesBy 0.3 (within (0.5, 0.75) (|+ loop 1))
    $ msvoB 0
    $ unison "mbd2" uni    
    $ x
    -- |+ mDefault
    |+ mGain
    |+ lpf "7000 1980"
    |+ n "<7 3> <17 32 23>"
    |+ sus "<0.5 1.25 1>"
    |+ accelerate "{0.07 0 -0.3 1 3 0.03 -2}%3"
    |+ up "8 3 1 2"

hush
