setcps (130/120/2)

do
  x <- lazy' 2 $ inst2
  d1
    -- $ slow 2
    $ msvoB 0
    $ x
    |+ mDefault
    |+ up "5 -12 3 -4 4 -2 4 0"
    |+ sus 0.5
    |+ end "0.25 0.45 0.125 1 0.5"
    |+ n 4

d2
-- $ slow 2
$ every 4 (rot 1)
$ s "[mfl*16 mfl(9,12) mfl*12]/4"
|+ wah 0.01
|+ up (scale "hijaz" "{0 [1 2 9]*2 <8 6> [1 0 -1]*2 [4 0]*3 4}" - "12 24")
|+ mGain
|+ sus "[1.0 1.5]*2"
|+ n "[0 4 11]*8"


