cps (92/120)

d2
$ msvoB 0.125
$ off "<0.125 0.333 0.075>" (|+| up ((slow 1.333 $  "<0 3 8 17>") - "<24 12 5>"))
$ s "ml:24*2"
|+| henon "<1 1 0>"
|+| wah "0.04"
-- |+| mDefault
-- |=| gain "0.8"
|+| n "<0 1 0 0 5 8>"
|+| orbit "1"
-- |+| up (slow 2 $ "<0 -2>")

do
  x <- lazy' 2 default_i
  d1
    $ msvo 0.125
    $ x
    |+| mGain
    |+| henon "<1 0>"
    |+| flange "0 0.9 0 0.3" "{0.7 0.8 0.2}%7"
    |+| slowPanS 3
    |+| n "~ 5 ~ 13/2 ~ ~ 27/3"
    |+| orbit "0"

d2 silence

hush
