(cps 0.9)

d1
$ slow 1.5
$ degradeBy 0.4
$ every 3 (density 2)
$ whenmod 4 3 (within (0.2, 0.6) (striateL' 3 0.08 8))
$ msvoA 0.125 $ stack[
  sound "mbd*2 [mb/2, mhh*2] [msn(2,3)? mbd:2] [mhh:3*2 mnt]",
  sound "[mhh:18(5,8), mnt:16/4 mcp*2?]",
  sound "~ msn:14*3 mpd:16/5"
]
|+| n "12 11"
|+| mGrav
-- |+| shape "0.2"
-- |+| mDefault




hush
