(cps 0.95)

d1
$ slow 1.5
-- $ degradeBy 0.4
-- $ every 4 (off 0.3333 (|+| binshf "1 0 0 1"))
-- $ every 6 (within (0.1, 0.5) (|+| disv "-3 -4 -2" "2 3 3 2"))
$ msvo 0.125 (sound "{mbd:6 ~ [mb:4 msn*3]/4 mpd:14/4, mnt:26*4 mnz:16/2 mhh:5(3,4)}")
|+| mDefault
|+| n "12"
|+| shape "0.2"
-- |+| n "12 4"
-- |+| n "12 6"
-- |+| modl "0 1 0 0 1"
-- |+| conv "0 0 0 0 0 1"
-- |+| wah "0 0 0 0 0.5 0"
-- |+| cut (slow 1 $ "1 2 4 5 2 1")

d2 silence

d3 silence

hush
