cps (84/120)

do
  x <- lazy' 2 $ inst $ hh ((sometimes rev . slow 3) "[mcp:2 mhh:14 ~, ml3:6/4 mps:9/9]")
  d1
    $ msvoA 0.125
    $ msvoB 0
    $ whenmod 4 2 (within (0.3, 0.45) (striate (choose [2,3,4,8])))
    $ x 
    |+| flangeL
    |+| unit (slow 3 "{r r r r c r r r s}")
    |+| mfDel "{0.2 [0.04, 0.08 0.6]*2 0 0 0 0.08 0.75 1 1}"
    |+| crush 8
    |=| mDefault
    -- |+| mNudge
    |+| room "0.05"
    |+| n (slow 1.8 "52 36")
 
hush
