do
  x <- lazy' 5 defaultI
  d1
    $ msvoB 0
    $ x
    -- |+| convp "{0.8 0 0 1}%3"
    -- |+| dist "0 0 0.21 0"
    |+| up "{1 4 -6 3 10}%9"
    -- |+| mfDel "{0.08 0.1 0 0 0}%11"
    |+| slowPanR 3
    |+| room "0 0.050 0 0 0"
    |+| slowSpeedR 3
    |+| mDefault
    |+| n "{43 36 28}%11"

hush
