--  pad

do
  let 
    pat = "0 1/4 1 0/2 0 1/3 0 1/4 1/3"
  d1 
    $ slow 3
    -- $ mSlowDiv 8
    $ msvoA 0.125
    $ stack [
      (gain pat |+| sound "ecco_noise:3")
      ,(gain (inverse <$> pat) |+| sound "ecco_bip:3")
      ,(slow 4 (gain (inverse <$> pat) |+| sound "ecco_pad:5") |*| gain "0.6")
    ]
    |+| mGain
    -- |+| mDefault
    |+| slowSpeedR 3
    |*| gain "0.7"
 
 hush

